src/assets/user_avatars/ambassador-icon.svg

<svg fill="none" height="352" viewBox="0 0 352 352" width="352" xmlns="http://www.w3.org/2000/svg"><path d="m176 352c97.202 0 176-78.798 176-176 0-97.2021-78.798-176-176-176-97.2021 0-176 78.7979-176 176 0 97.202 78.7979 176 176 176z" fill="#fedf85"/><path d="m153.813 254.013-12.044 2.662c.456 1.743 2.24 7.095 5.735 14.562 4.369 9.334 23.352 11.742 31.738 10.911 8.386-.832 15.646-12.448 18.267-17.902 2.097-4.363 2.329-17.13 2.183-22.968l-12.492 3.836c-1.361 6.966-6.028 21.768-13.813 25.25-7.784 3.482-16.293-9.45-19.574-16.351z" fill="#2c967a"/><path d="m199.85 249.635s.046 28.434-25.019 32.72c-25.065 4.287-33.884-25.716-33.884-25.716" stroke="#000" stroke-linecap="round" stroke-linejoin="round" stroke-miterlimit="10" stroke-width="6"/><path d="m74.5742 262.033c-9.9554 4.66-26.0101-2.356-32.8552-16.98-6.8452-14.624-2.7651-31.871 7.1903-36.531 9.9553-4.66 35.6202 48.851 25.6649 53.511z" fill="#16d2aa" stroke="#000" stroke-linejoin="round" stroke-width="8"/><path d="m302.029 201.852-73.923-136.9463h-3.317l-175.3296 145.0023 8.5296 31.275 19.4284 20.376z" fill="#85e8d3"/><path d="m223.841 64.4322 2.542 3.0879-168.4904 138.6769c-2.9912 2.985-4.0718 6.326-3.9941 10.226.1041 5.223 2.304 11.611 5.9951 19.496 3.5794 7.647 7.6909 13.355 11.9951 16.694 3.5734 2.771 7.1865 3.868 10.9688 3.222l217.6855-56.905 1.012 3.87 1.011 3.869-215.4146 56.312.0068.021c-.871.277-1.7358.493-2.5918.655l-10.4023 2.719-1.0078-3.855c-2.1602-.864-4.2244-2.077-6.1699-3.586-5.7024-4.422-10.4845-11.39-14.3389-19.624-3.7425-7.995-6.6069-15.699-6.7471-22.728-.0489-2.458.2369-4.808.8926-7.036l-2.2451-2.727 8.0254-6.607c.9221-.887 1.9471-1.739 3.0791-2.554l.0088.012 165.6388-136.3277z" fill="#000"/><ellipse cx="27.8006" cy="85.0935" fill="#16d2aa" rx="27.8006" ry="85.0935" transform="matrix(.84501 -.534751 .48229 .876011 211.355 65.7328)"/><g stroke="#000" stroke-linejoin="round" stroke-width="8"><ellipse cx="20.8862" cy="85.0935" fill="#2c967a" rx="20.8862" ry="85.0935" transform="matrix(.84501 -.534751 .48229 .876011 223.041 58.3379)"/><path d="m241.054 47.2768c-3.347-1.5774-10.394 5.5392-12.455 6.8431-9.747 6.1684.725 44.5429 23.391 85.7121 22.666 41.169 43.245 66.918 58.689 63.374 4.628-1.062 13.513-4.994 13.466-10.396"/><path d="m187.431 185.03s.301 13.081-12.834 16.6c-13.148 3.523-19.415-7.959-19.415-7.959" stroke-linecap="round" stroke-miterlimit="10"/><path d="m197.222 163.862s-.216-9.288 9.124-11.791 13.798 5.649 13.798 5.649" stroke-linecap="round" stroke-miterlimit="10"/><path d="m113.336 186.339s-.215-9.288 9.125-11.791 13.797 5.649 13.797 5.649" stroke-linecap="round" stroke-miterlimit="10"/></g></svg>

<svg width="352" height="352" viewBox="0 0 352 352" fill="none" xmlns="http://www.w3.org/2000/svg">
  <path d="M176 352C273.202 352 352 273.202 352 176C352 78.7979 273.202 0 176 0C78.7979 0 0 78.7979 0 176C0 273.202 78.7979 352 176 352Z" fill="#FEDF85"/>
  <path d="M153.813 254.013L141.769 256.675C142.225 258.418 144.009 263.77 147.504 271.237C151.873 280.571 170.856 282.979 179.242 282.148C187.628 281.316 194.888 269.7 197.509 264.246C199.606 259.883 199.838 247.116 199.692 241.278L187.2 245.114C185.839 252.08 181.172 266.882 173.387 270.364C165.603 273.846 157.094 260.914 153.813 254.013Z" fill="#2C967A"/>
  <path d="M199.85 249.635C199.85 249.635 199.896 278.069 174.831 282.355C149.766 286.642 140.947 256.639 140.947 256.639" stroke="black" stroke-width="6" stroke-miterlimit="10" stroke-linecap="round" stroke-linejoin="round"/>
  <path d="M74.5742 262.033C64.6188 266.693 48.5641 259.677 41.719 245.053C34.8738 230.429 38.9539 213.182 48.9093 208.522C58.8646 203.862 84.5295 257.373 74.5742 262.033Z" fill="#16D2AA" stroke="black" stroke-width="8" stroke-linejoin="round"/>
  <path d="M302.029 201.852L228.106 64.9057H224.789L49.4594 209.908L57.989 241.183L77.4174 261.559L302.029 201.852Z" fill="#85E8D3"/>
  <path d="M223.841 64.4322L226.383 67.5201L57.8926 206.197C54.9014 209.182 53.8208 212.523 53.8985 216.423C54.0026 221.646 56.2025 228.034 59.8936 235.919C63.473 243.566 67.5845 249.274 71.8887 252.613C75.4621 255.384 79.0752 256.481 82.8575 255.835L300.543 198.93L301.555 202.8L302.566 206.669L87.1514 262.981L87.1582 263.002C86.2872 263.279 85.4224 263.495 84.5664 263.657L74.1641 266.376L73.1563 262.521C70.9961 261.657 68.9319 260.444 66.9864 258.935C61.284 254.513 56.5019 247.545 52.6475 239.311C48.905 231.316 46.0406 223.612 45.9004 216.583C45.8515 214.125 46.1373 211.775 46.793 209.547L44.5479 206.82L52.5733 200.213C53.4954 199.326 54.5204 198.474 55.6524 197.659L55.6612 197.671L221.3 61.3433L223.841 64.4322Z" fill="black"/>
  <ellipse cx="27.8006" cy="85.0935" rx="27.8006" ry="85.0935" transform="matrix(0.84501 -0.534751 0.48229 0.876011 211.355 65.7328)" fill="#16D2AA"/>
  <ellipse cx="20.8862" cy="85.0935" rx="20.8862" ry="85.0935" transform="matrix(0.84501 -0.534751 0.48229 0.876011 223.041 58.3379)" fill="#2C967A" stroke="black" stroke-width="8" stroke-linejoin="round"/>
  <path d="M241.054 47.2768C237.707 45.6994 230.66 52.816 228.599 54.1199C218.852 60.2883 229.324 98.6628 251.99 139.832C274.656 181.001 295.235 206.75 310.679 203.206C315.307 202.144 324.192 198.212 324.145 192.81" stroke="black" stroke-width="8" stroke-linejoin="round"/>
  <path d="M187.431 185.03C187.431 185.03 187.732 198.111 174.597 201.63C161.449 205.153 155.182 193.671 155.182 193.671" stroke="black" stroke-width="8" stroke-miterlimit="10" stroke-linecap="round" stroke-linejoin="round"/>
  <path d="M197.222 163.862C197.222 163.862 197.006 154.574 206.346 152.071C215.686 149.568 220.144 157.72 220.144 157.72" stroke="black" stroke-width="8" stroke-miterlimit="10" stroke-linecap="round" stroke-linejoin="round"/>
  <path d="M113.336 186.339C113.336 186.339 113.121 177.051 122.461 174.548C131.801 172.045 136.258 180.197 136.258 180.197" stroke="black" stroke-width="8" stroke-miterlimit="10" stroke-linecap="round" stroke-linejoin="round"/>
</svg>
